X: 13777
T: Fort Of The Daft Woman
R: reel
M: 4/4
K: Gmajor
BAGB cE (3EEE|BAGB AGED|B2DB cAdc|(3Bcd AF GFGA|
BAGB cE (3EEE|BAGB AGED|G3D EDB,D|1 CEDB, G,3 A:|2 CEDB, G,2ga||
bg (3ggg =fa (3aaa|eccB c3A|df (3fff bagf|fggf g3a|
bg (3ggg =fa (3aaa|eccB c3A|df (3fff bagf|fggf g3a|
bg (3ggg =fa (3aaa|eccB c3A|df (3fff bagf|fggf gedc|
BDGB cE (3EEE|BAGB AGED|G3D EDB,D|CEDB, G,3 A||

